packages/icons/plugins/connect.svg

<svg width="17" height="16" viewBox="0 0 17 16" xmlns="http://www.w3.org/2000/svg">
<g>
        <path
            fill-rule="evenodd"
            clip-rule="evenodd"
            d="M4.15015 7.36221C4.15015 7.03084 4.41878 6.76221 4.75015 6.76221H9.25015C9.58152 6.76221 9.85015 7.03084 9.85015 7.36221C9.85015 7.69358 9.58152 7.96221 9.25015 7.96221H4.75015C4.41878 7.96221 4.15015 7.69358 4.15015 7.36221Z"
            fill="white"
        />
        <path
            fill-rule="evenodd"
            clip-rule="evenodd"
            d="M3.76765 1.7293C2.56902 1.7293 1.60015 2.69817 1.60015 3.8968V7.36179C1.60015 7.69317 1.33152 7.96179 1.00015 7.96179C0.668776 7.96179 0.400146 7.69317 0.400146 7.36179V3.8968C0.400146 2.03543 1.90628 0.529297 3.76765 0.529297H7.98264C8.86881 0.529297 9.70567 0.805241 10.3308 1.34136C10.9644 1.8848 11.3501 2.67182 11.3501 3.61179C11.3501 3.94317 11.0815 4.2118 10.7501 4.2118C10.4188 4.2118 10.1501 3.94317 10.1501 3.61179C10.1501 3.02177 9.91716 2.56754 9.54953 2.25223C9.17337 1.9296 8.62648 1.7293 7.98264 1.7293H3.76765Z"
            fill="white"
        />
        <path
            fill-rule="evenodd"
            clip-rule="evenodd"
            d="M4.00015 4.21221C2.67402 4.21221 1.60015 5.28608 1.60015 6.61221V11.8622C1.60015 13.1883 2.67402 14.2622 4.00015 14.2622H11.5001C12.8263 14.2622 13.9001 13.1883 13.9001 11.8622V11.3747H13.8027C12.8621 11.3747 11.896 10.7961 11.6257 9.79044L11.6249 9.78738L11.6249 9.78738C11.4193 9.00591 11.6636 8.23162 12.1873 7.72391C12.5779 7.32659 13.1128 7.09967 13.6901 7.09967H13.9001V6.61221C13.9001 5.29358 12.8188 4.21221 11.5001 4.21221H4.00015ZM0.400146 6.61221C0.400146 4.62334 2.01128 3.01221 4.00015 3.01221H11.5001C13.4815 3.01221 15.1001 4.63084 15.1001 6.61221V7.69967C15.1001 8.03104 14.8315 8.29967 14.5001 8.29967H13.6901C13.4309 8.29967 13.2038 8.40006 13.04 8.56827C13.0353 8.5731 13.0305 8.57786 13.0257 8.58253C12.8047 8.79464 12.6923 9.12611 12.785 9.48043C12.8903 9.86908 13.3039 10.1747 13.8027 10.1747H14.5001C14.8315 10.1747 15.1001 10.4433 15.1001 10.7747V11.8622C15.1001 13.8511 13.489 15.4622 11.5001 15.4622H4.00015C2.01128 15.4622 0.400146 13.8511 0.400146 11.8622V6.61221Z"
            fill="white"
        />
        <path
            fill-rule="evenodd"
            clip-rule="evenodd"
            d="M13.6903 8.29912C13.4311 8.29912 13.204 8.39951 13.0402 8.56772L13.0294 8.57849C12.8376 8.76576 12.7307 9.03208 12.7576 9.31477L12.7583 9.32182L12.7583 9.32183C12.7961 9.77582 13.235 10.1741 13.7803 10.1741H15.2278C15.3278 10.1741 15.4003 10.094 15.4003 10.0091V8.46414C15.4003 8.37932 15.3278 8.29912 15.2278 8.29912H13.6903ZM12.1858 7.72513C12.5765 7.32671 13.1122 7.09912 13.6903 7.09912H15.2278C15.9829 7.09912 16.6003 7.70895 16.6003 8.46414V10.0091C16.6003 10.7643 15.9829 11.3741 15.2278 11.3741H13.7803C12.7067 11.3741 11.6617 10.5891 11.5627 9.42502C11.5011 8.76677 11.7517 8.1519 12.1858 7.72513Z"
            fill="white"
        />
    </g>
</svg>

<svg xmlns="http://www.w3.org/2000/svg" width="17" height="16">
    <g fill="#fff" fill-rule="evenodd" clip-rule="evenodd">
        <path d="M4.15 7.362a.6.6 0 0 1 .6-.6h4.5a.6.6 0 0 1 0 1.2h-4.5a.6.6 0 0 1-.6-.6ZM3.768 1.73A2.166 2.166 0 0 0 1.6 3.896v3.465a.6.6 0 1 1-1.2 0V3.897A3.366 3.366 0 0 1 3.768.529h4.215c.886 0 1.723.276 2.348.812.633.544 1.02 1.33 1.02 2.27a.6.6 0 1 1-1.2 0c0-.59-.234-1.043-.601-1.359-.377-.322-.924-.523-1.567-.523H3.768Z"/>
        <path d="M4 4.212a2.4 2.4 0 0 0-2.4 2.4v5.25a2.4 2.4 0 0 0 2.4 2.4h7.5a2.4 2.4 0 0 0 2.4-2.4v-.487h-.097c-.94 0-1.907-.579-2.177-1.585l-.001-.003a2.11 2.11 0 0 1 .562-2.063c.39-.397.926-.624 1.503-.624h.21v-.488c0-1.318-1.081-2.4-2.4-2.4H4Zm-3.6 2.4a3.6 3.6 0 0 1 3.6-3.6h7.5c1.982 0 3.6 1.619 3.6 3.6V7.7a.6.6 0 0 1-.6.6h-.81a.895.895 0 0 0-.664.283.91.91 0 0 0-.241.897c.105.39.519.695 1.018.695h.697a.6.6 0 0 1 .6.6v1.087a3.6 3.6 0 0 1-3.6 3.6H4a3.6 3.6 0 0 1-3.6-3.6v-5.25Z"/>
        <path d="M13.69 8.3c-.259 0-.486.1-.65.268l-.01.01a.906.906 0 0 0-.272.737v.007c.038.454.477.852 1.022.852h1.448c.1 0 .172-.08.172-.165V8.464a.17.17 0 0 0-.172-.165H13.69Zm-1.504-.575c.39-.398.926-.626 1.504-.626h1.538c.755 0 1.372.61 1.372 1.365v1.545a1.37 1.37 0 0 1-1.372 1.365H13.78c-1.073 0-2.118-.785-2.217-1.949a2.106 2.106 0 0 1 .623-1.7Z"/>
    </g>
</svg>
